modules/open-iconic/icons/list.svg

<svg xmlns="http://www.w3.org/2000/svg" width="8" height="8" viewBox="0 0 8 8">
  <path d="M.5 0c-.28 0-.5.22-.5.5s.22.5.5.5.5-.22.5-.5-.22-.5-.5-.5zm1.5 0v1h6v-1h-6zm-1.5 2c-.28 0-.5.22-.5.5s.22.5.5.5.5-.22.5-.5-.22-.5-.5-.5zm1.5 0v1h6v-1h-6zm-1.5 2c-.28 0-.5.22-.5.5s.22.5.5.5.5-.22.5-.5-.22-.5-.5-.5zm1.5 0v1h6v-1h-6zm-1.5 2c-.28 0-.5.22-.5.5s.22.5.5.5.5-.22.5-.5-.22-.5-.5-.5zm1.5 0v1h6v-1h-6z"
  />
</svg>

<svg xmlns="http://www.w3.org/2000/svg" width="8" height="8"><path d="M.5 0C.22 0 0 .22 0 .5s.22.5.5.5.5-.22.5-.5S.78 0 .5 0zM2 0v1h6V0H2zM.5 2c-.28 0-.5.22-.5.5s.22.5.5.5.5-.22.5-.5S.78 2 .5 2zM2 2v1h6V2H2zM.5 4c-.28 0-.5.22-.5.5s.22.5.5.5.5-.22.5-.5S.78 4 .5 4zM2 4v1h6V4H2zM.5 6c-.28 0-.5.22-.5.5s.22.5.5.5.5-.22.5-.5S.78 6 .5 6zM2 6v1h6V6H2z"/></svg>
